assets/icons/cross-circle.svg

<svg xmlns="http://www.w3.org/2000/svg" viewBox="0 0 16 16" role="presentation" aria-hidden="true"><path fill-rule="evenodd" clip-rule="evenodd" d="M8.00016 13.6667C11.1298 13.6667 13.6668 11.1297 13.6668 8.00004C13.6668 4.87043 11.1298 2.33337 8.00016 2.33337C4.87055 2.33337 2.3335 4.87043 2.3335 8.00004C2.3335 11.1297 4.87055 13.6667 8.00016 13.6667ZM10.8219 9.96066C10.8226 9.8938 10.8112 9.82736 10.7883 9.76454C10.7634 9.70414 10.7268 9.6493 10.6806 9.60323L9.07431 7.99946L10.6864 6.39684C10.7335 6.3501 10.7707 6.2944 10.796 6.23302C10.8212 6.17163 10.834 6.10581 10.8335 6.03941C10.8347 5.90044 10.782 5.76643 10.6864 5.66574L10.3297 5.30831C10.2798 5.2614 10.2211 5.22474 10.1571 5.20039C10.0947 5.17809 10.0289 5.16671 9.96257 5.16674C9.89585 5.16607 9.82954 5.17747 9.76685 5.20039C9.70643 5.22502 9.65165 5.26174 9.60588 5.30831L8.00537 6.91789L6.39907 5.30831C6.35293 5.2611 6.29726 5.22431 6.23578 5.20039C6.17416 5.17797 6.10909 5.16658 6.04353 5.16674C5.97607 5.16631 5.90905 5.1777 5.8455 5.20039C5.78249 5.22534 5.72474 5.26195 5.67525 5.30831L5.31971 5.66574C5.27197 5.71595 5.23528 5.77565 5.21201 5.84097C5.18981 5.90477 5.17845 5.97185 5.17843 6.03941C5.17767 6.10591 5.18905 6.17198 5.21201 6.23437C5.23602 6.29556 5.27274 6.35094 5.31971 6.39684L6.91443 7.99946L5.31392 9.60323C5.26686 9.64997 5.2296 9.70567 5.20434 9.76706C5.17909 9.82844 5.16634 9.89427 5.16684 9.96066C5.16708 10.0278 5.17964 10.0942 5.2039 10.1568C5.22871 10.2226 5.26608 10.2829 5.31392 10.3343L5.67062 10.6918C5.72015 10.7386 5.77838 10.7753 5.84202 10.7997C5.90484 10.8221 5.97106 10.8335 6.03774 10.8333C6.1041 10.8341 6.17004 10.8227 6.23231 10.7997C6.29308 10.7751 6.34824 10.7384 6.39444 10.6918L7.99379 9.07638L9.60009 10.6894C9.64672 10.7366 9.70276 10.7734 9.76454 10.7974C9.82613 10.8199 9.89122 10.8313 9.95679 10.831C10.0243 10.8314 10.0913 10.8201 10.1548 10.7974C10.2176 10.7727 10.275 10.736 10.3239 10.6894L10.6806 10.332C10.728 10.2815 10.7646 10.2219 10.7883 10.1568C10.8101 10.0937 10.8214 10.0274 10.8219 9.96066Z" fill="currentColor"/></svg>

<svg xmlns="http://www.w3.org/2000/svg" aria-hidden="true" viewBox="0 0 16 16"><path fill="currentColor" fill-rule="evenodd" d="M8 13.667A5.667 5.667 0 1 0 8 2.334a5.667 5.667 0 0 0 0 11.333m2.822-3.706a.6.6 0 0 0-.034-.196.5.5 0 0 0-.107-.162L9.074 8l1.612-1.602a.5.5 0 0 0 .148-.358.54.54 0 0 0-.148-.373l-.356-.358a.52.52 0 0 0-.367-.141.48.48 0 0 0-.357.142l-1.6 1.609-1.607-1.61a.5.5 0 0 0-.163-.108.58.58 0 0 0-.39 0 .5.5 0 0 0-.17.108l-.356.358a.5.5 0 0 0-.108.175.6.6 0 0 0 0 .393q.036.094.108.163L6.914 8l-1.6 1.604a.5.5 0 0 0-.147.358.55.55 0 0 0 .147.373l.357.358a.52.52 0 0 0 .367.141q.1.001.194-.033a.5.5 0 0 0 .162-.108l1.6-1.616L9.6 10.69a.47.47 0 0 0 .357.142q.101.001.198-.034a.5.5 0 0 0 .169-.108l.357-.357a.5.5 0 0 0 .107-.175.6.6 0 0 0 .034-.196" clip-rule="evenodd"/></svg>
